X: 21260
T: Keep The Old Ark Rolling
R: reel
M: 4/4
K: Cmajor
|:G3 G2 A G2 F E2 F|G2 c c2 B c3 c2 d|e2 g g2 e d2 f e2 d|c2 e d2 c A2 B c2 A|
G3 G2 A G2 F E2 F|G2 c c2 B c3 c2 d|e2 g g2 e d2 f e2 d|c6 A6|
G3 G2 A G2 F E2 F|G2 c c2 B c3 c2 d|e2 g g2 e d2 f e2 d|c2 e d2 c A2 B c2 A|
G3 G2 A G2 F E2 F|G2 c c2 B c3 c2 d|e2 g g2 e d2 f e2 d|c3 c2 B c2 d e2 f|
g2 e c2 e g2 e g2 e|f2 e f2 g a3 g2 f|e2 g g2 e d2 f e2 d|c2 e d2 c A2 B c2 A|
G3 G2 A G2 F E2 F|G2 c c2 B c3 c2 d|e2 g g2 e d2 f e2 d|c3 c2 B c2 d e2 f|
g2 e c2 e g2 e g2 e|f2 e f2 g a3 g2 f|e2 g g2 e d2 f e2 d|c2 e d2 c A2 B c2 A|
G3 G2 A G2 F E2 F|G2 c c2 B c3 c2 d|e2 g g2 e d2 f e2 d|c6 A6:|

